icon-themes/breeze_svg/cmd/sc_setoutline.svg

<svg viewBox="0 0 16 16" xmlns="http://www.w3.org/2000/svg"><path d="m7 2v1h8v-1zm0 2v1h5v-1zm5 4v1h3v-1zm0 2v1h1v-1zm1 3v1h2v-1z" fill="#4d4d4d"/><path d="m2 2v1h1v2h-1v1h3v-1h-1v-2h1v-1zm0 6v1h1v2h-1v1h3v-1h-1v-2h1v-1zm6 0v1h1v2h-1v1h3v-1h-1v-2h1v-1zm-2 3v1h1v-1z" fill="#1d99f3"/></svg>

<svg xmlns="http://www.w3.org/2000/svg" viewBox="0 0 16 16">
 <path 
     style="fill:#4d4d4d" 
     d="M 7 2 L 7 3 L 15 3 L 15 2 L 7 2 z M 7 4 L 7 5 L 12 5 L 12 4 L 7 4 z M 12 8 L 12 9 L 15 9 L 15 8 L 12 8 z M 12 10 L 12 11 L 13 11 L 13 10 L 12 10 z M 13 13 L 13 14 L 15 14 L 15 13 L 13 13 z "
     />
 <path 
     style="fill:#1d99f3" 
     d="M 2 2 L 2 3 L 3 3 L 3 5 L 2 5 L 2 6 L 5 6 L 5 5 L 4 5 L 4 3 L 5 3 L 5 2 L 2 2 z M 2 8 L 2 9 L 3 9 L 3 11 L 2 11 L 2 12 L 5 12 L 5 11 L 4 11 L 4 9 L 5 9 L 5 8 L 2 8 z M 8 8 L 8 9 L 9 9 L 9 11 L 8 11 L 8 12 L 11 12 L 11 11 L 10 11 L 10 9 L 11 9 L 11 8 L 8 8 z M 6 11 L 6 12 L 7 12 L 7 11 L 6 11 z "
     />
 </svg>
